X: 37251
T: Sixth Floor, The
R: reel
M: 4/4
K: Aminor
|:A,2CE FEDF|EDFE DCA,B,|G,2B,D ~G3E|DEDB, G,A,B,G,|
A,2CE FEDF|EDFE DCA,G,|B,3D E^FGB|1 AA,A,G, A,2CB,:|2 AA,A,G, A,2DE||
|:ABce ~a3g|efed cdBA|G2BG dGBG|cBAB GABG|
A2ce ageg|efed cdBc|d~B3g~B3|1 d~B3g~B3:|2 GABG A2cd||
M:7/8
eA (3cBA dcB|eA (3cBA a^ge|Ace^g age|Acea ba^g|
eA (3cBA dcB|eA (3cBA a^ge|dcBA cBA|1 dAFD E^GB:|2 dAFD DCB,||

